Flat-Remix-Dark/apps/scalable/amazon.svg

<svg xmlns="http://www.w3.org/2000/svg" xmlns:xlink="http://www.w3.org/1999/xlink" width="384pt" height="384pt" version="1.1" viewBox="0 0 384 384"> <defs> <filter id="alpha" width="100%" height="100%" x="0%" y="0%" filterUnits="objectBoundingBox"> <feColorMatrix in="SourceGraphic" type="matrix" values="0 0 0 0 1 0 0 0 0 1 0 0 0 0 1 0 0 0 1 0"/> </filter> <mask id="mask0"> <g filter="url(#alpha)"> <rect width="384" height="384" x="0" y="0" style="fill:rgb(0%,0%,0%);fill-opacity:0.301961"/> </g> </mask> <clipPath id="clip1"> <rect width="384" height="384" x="0" y="0"/> </clipPath> <g id="surface5" clip-path="url(#clip1)"> <path style="fill:rgb(0%,0%,0%)" d="M 168.203125 339.898438 C 138.5625 336.339844 110.464844 323.269531 78.152344 298.019531 C 68.023438 290.105469 56.875 280.476562 55.933594 278.832031 C 54.523438 276.375 54.855469 273.503906 56.765625 271.59375 C 59.730469 268.625 62.039062 269.203125 74.238281 275.964844 C 112.203125 297.007812 136.375 306.730469 162.863281 311.605469 C 172.945312 313.460938 204.023438 313.476562 215.898438 311.632812 C 240.496094 307.8125 258.472656 302.875 283.027344 293.203125 C 297.113281 287.652344 298.8125 287.46875 302.335938 291.148438 C 304.636719 293.550781 304.988281 297.324219 303.167969 300.101562 C 301.621094 302.460938 292.773438 308.617188 282.78125 314.289062 C 247.457031 334.335938 203.566406 344.144531 168.203125 339.898438 Z M 309.863281 315.40625 C 309.082031 314.625 308.441406 313.199219 308.441406 312.242188 C 308.441406 311.285156 310.171875 305.277344 312.289062 298.894531 C 316.761719 285.398438 317.648438 280.578125 315.960938 278.890625 C 314.144531 277.074219 308.707031 276.664062 299.542969 277.652344 C 283.625 279.367188 281.480469 279.402344 279.933594 278.003906 C 277.792969 276.066406 278.070312 271.980469 280.5 269.703125 C 283.097656 267.269531 289.441406 263.777344 294.308594 262.101562 C 304.0625 258.746094 324.144531 258.257812 330.824219 261.214844 C 335.714844 263.378906 336.578125 265.296875 336.453125 273.738281 C 336.25 287.535156 330.304688 302.582031 321.390625 311.855469 C 317.144531 316.273438 316.3125 316.832031 313.949219 316.832031 C 312.238281 316.832031 310.78125 316.324219 309.863281 315.40625 Z M 145.394531 262.058594 C 133.753906 259.601562 122.777344 253.003906 116.554688 244.730469 C 112.25 239.003906 110.277344 235.027344 107.929688 227.355469 C 106.164062 221.574219 106.015625 220.109375 106.003906 208.628906 C 105.992188 194.035156 107.039062 189.015625 112.351562 178.292969 C 121.636719 159.539062 141.347656 147.578125 172.105469 142.042969 C 179.699219 140.675781 201.4375 138.171875 205.800781 138.160156 C 211.523438 138.144531 211.628906 137.953125 211.628906 127.257812 C 211.628906 112.722656 208.964844 105.179688 202.21875 100.582031 C 197.234375 97.191406 192.847656 95.878906 186.429688 95.863281 C 177.1875 95.839844 169.660156 98.976562 163.726562 105.316406 C 160.128906 109.167969 158.566406 111.875 157.105469 116.789062 C 156.554688 118.644531 155.441406 121.003906 154.628906 122.039062 C 153.367188 123.640625 152.605469 123.914062 149.410156 123.914062 C 147.355469 123.914062 142.28125 123.441406 138.140625 122.859375 C 134 122.277344 127.5 121.453125 123.699219 121.03125 C 115.453125 120.109375 113.839844 119.566406 112.28125 117.191406 C 111.175781 115.503906 111.179688 115.046875 112.355469 110.21875 C 115.414062 97.648438 119.929688 89.609375 129.050781 80.492188 C 139.480469 70.066406 150.589844 64.539062 168.367188 60.941406 C 175.824219 59.429688 179.25 59.136719 189.347656 59.136719 C 215.1875 59.136719 234.644531 65.707031 247.269531 78.699219 C 254.589844 86.230469 258.320312 94.433594 260.113281 106.953125 C 260.660156 110.769531 261.113281 129.476562 261.390625 159.507812 L 261.816406 206.136719 L 264.125 211.472656 C 265.390625 214.410156 268.234375 219.210938 270.441406 222.144531 C 275.761719 229.210938 276.867188 231.585938 275.992188 234.074219 C 275.34375 235.921875 262.523438 247.6875 250.914062 257.089844 C 246.195312 260.914062 245.398438 261.304688 242.328125 261.304688 C 239.074219 261.304688 238.734375 261.097656 233.464844 255.929688 C 230.449219 252.972656 225.878906 247.6875 223.308594 244.183594 C 220.734375 240.679688 218.242188 237.8125 217.769531 237.8125 C 217.292969 237.8125 215.476562 239.292969 213.734375 241.105469 C 206.328125 248.78125 196.613281 255.484375 187.953125 258.890625 C 177.398438 263.042969 157.195312 264.546875 145.394531 262.058594 Z M 184.847656 228.195312 C 194.207031 225.757812 200.683594 219.890625 205.90625 209.121094 C 210.675781 199.285156 211.722656 193.347656 211.46875 177.617188 L 211.269531 165.558594 L 202.730469 165.707031 C 190.527344 165.921875 183.679688 167.304688 175.738281 171.167969 C 161.984375 177.859375 156.082031 188.484375 157.027344 204.847656 C 157.523438 213.410156 159.796875 218.695312 165.050781 223.496094 C 170.800781 228.753906 177.027344 230.230469 184.847656 228.195312 Z M 184.847656 228.195312"/> </g> <mask id="mask1"> <g filter="url(#alpha)"> <rect width="384" height="384" x="0" y="0" style="fill:rgb(0%,0%,0%);fill-opacity:0.14902"/> </g> </mask> <clipPath id="clip2"> <rect width="384" height="384" x="0" y="0"/> </clipPath> <g id="surface8" clip-path="url(#clip2)"> <path style="fill:rgb(0%,0%,0%)" d="M 189.347656 51.636719 C 185.855469 51.636719 183.191406 51.675781 180.855469 51.785156 C 203.476562 52.8125 220.726562 59.320312 232.269531 71.199219 C 239.589844 78.730469 243.320312 86.933594 245.113281 99.453125 C 245.660156 103.269531 246.113281 121.976562 246.390625 152.007812 L 246.820312 198.636719 L 249.125 203.976562 C 250.394531 206.910156 253.234375 211.714844 255.441406 214.644531 C 260.761719 221.710938 261.867188 224.085938 260.996094 226.574219 C 260.34375 228.421875 247.527344 240.1875 235.917969 249.589844 C 235.660156 249.796875 235.457031 249.957031 235.222656 250.144531 C 238.863281 253.648438 239.480469 253.804688 242.328125 253.804688 C 245.398438 253.804688 246.195312 253.414062 250.917969 249.589844 C 262.527344 240.1875 275.34375 228.421875 275.996094 226.574219 C 276.867188 224.085938 275.761719 221.710938 270.441406 214.644531 C 268.234375 211.714844 265.394531 206.910156 264.125 203.976562 L 261.820312 198.636719 L 261.390625 152.007812 C 261.113281 121.976562 260.660156 103.269531 260.113281 99.453125 C 258.320312 86.933594 254.589844 78.730469 247.269531 71.199219 C 234.640625 58.203125 215.1875 51.636719 189.347656 51.636719 Z M 189.347656 51.636719"/> </g> </defs> <g> <use mask="url(#mask0)" xlink:href="#surface5"/> <path style="fill:rgb(100.000%,100.000%,100.000%)" d="M 145.394531 254.558594 C 133.753906 252.101562 122.777344 245.503906 116.554688 237.230469 C 112.25 231.503906 110.277344 227.527344 107.929688 219.855469 C 106.164062 214.074219 106.015625 212.609375 106.003906 201.128906 C 105.992188 186.535156 107.039062 181.515625 112.351562 170.792969 C 121.636719 152.039062 141.347656 140.078125 172.105469 134.542969 C 179.699219 133.175781 201.4375 130.671875 205.800781 130.660156 C 211.523438 130.644531 211.628906 130.453125 211.628906 119.757812 C 211.628906 105.222656 208.964844 97.679688 202.21875 93.082031 C 197.234375 89.691406 192.847656 88.378906 186.429688 88.363281 C 177.1875 88.339844 169.660156 91.476562 163.726562 97.816406 C 160.128906 101.667969 158.566406 104.375 157.105469 109.289062 C 156.554688 111.144531 155.441406 113.503906 154.628906 114.539062 C 153.367188 116.140625 152.605469 116.414062 149.410156 116.414062 C 147.355469 116.414062 142.28125 115.941406 138.140625 115.359375 C 134 114.777344 127.5 113.953125 123.699219 113.53125 C 115.453125 112.609375 113.839844 112.066406 112.28125 109.691406 C 111.175781 108.003906 111.179688 107.546875 112.355469 102.71875 C 115.414062 90.148438 119.929688 82.109375 129.050781 72.992188 C 139.480469 62.566406 150.589844 57.039062 168.367188 53.441406 C 175.824219 51.929688 179.25 51.636719 189.347656 51.636719 C 215.1875 51.636719 234.644531 58.207031 247.269531 71.199219 C 254.589844 78.730469 258.320312 86.933594 260.113281 99.453125 C 260.660156 103.269531 261.113281 121.976562 261.390625 152.007812 L 261.816406 198.636719 L 264.125 203.972656 C 265.390625 206.910156 268.234375 211.710938 270.441406 214.644531 C 275.761719 221.710938 276.867188 224.085938 275.992188 226.574219 C 275.34375 228.421875 262.523438 240.1875 250.914062 249.589844 C 246.195312 253.414062 245.398438 253.804688 242.328125 253.804688 C 239.074219 253.804688 238.734375 253.597656 233.464844 248.429688 C 230.449219 245.472656 225.878906 240.1875 223.308594 236.683594 C 220.734375 233.179688 218.242188 230.3125 217.769531 230.3125 C 217.292969 230.3125 215.476562 231.792969 213.734375 233.605469 C 206.328125 241.28125 196.613281 247.984375 187.953125 251.390625 C 177.398438 255.542969 157.195312 257.046875 145.394531 254.558594 Z M 184.847656 220.695312 C 194.207031 218.257812 200.683594 212.390625 205.90625 201.621094 C 210.675781 191.785156 211.722656 185.847656 211.46875 170.117188 L 211.269531 158.058594 L 202.730469 158.207031 C 190.527344 158.421875 183.679688 159.804688 175.738281 163.667969 C 161.984375 170.359375 156.082031 180.984375 157.027344 197.347656 C 157.523438 205.910156 159.796875 211.195312 165.050781 215.996094 C 170.800781 221.253906 177.027344 222.730469 184.847656 220.695312 Z M 184.847656 220.695312"/> <path style="fill:rgb(89.411%,18.823%,18.823%)" d="M 168.203125 332.398438 C 138.5625 328.839844 110.464844 315.769531 78.152344 290.519531 C 68.023438 282.605469 56.875 272.976562 55.933594 271.332031 C 54.523438 268.875 54.855469 266.003906 56.765625 264.09375 C 59.730469 261.125 62.039062 261.703125 74.238281 268.464844 C 112.203125 289.507812 136.375 299.230469 162.863281 304.105469 C 172.945312 305.960938 204.023438 305.976562 215.898438 304.132812 C 240.496094 300.3125 258.472656 295.375 283.027344 285.703125 C 297.113281 280.152344 298.8125 279.96875 302.335938 283.648438 C 304.636719 286.050781 304.988281 289.824219 303.167969 292.601562 C 301.621094 294.960938 292.773438 301.117188 282.78125 306.789062 C 247.457031 326.835938 203.566406 336.644531 168.203125 332.398438 Z M 309.863281 307.90625 C 309.082031 307.125 308.441406 305.699219 308.441406 304.742188 C 308.441406 303.785156 310.171875 297.777344 312.289062 291.394531 C 316.761719 277.898438 317.648438 273.078125 315.960938 271.390625 C 314.144531 269.574219 308.707031 269.164062 299.542969 270.152344 C 283.625 271.867188 281.480469 271.902344 279.933594 270.503906 C 277.792969 268.566406 278.070312 264.480469 280.5 262.203125 C 283.097656 259.769531 289.441406 256.277344 294.308594 254.601562 C 304.0625 251.246094 324.144531 250.757812 330.824219 253.714844 C 335.714844 255.878906 336.578125 257.796875 336.453125 266.238281 C 336.25 280.035156 330.304688 295.082031 321.390625 304.355469 C 317.144531 308.773438 316.3125 309.332031 313.949219 309.332031 C 312.238281 309.332031 310.78125 308.824219 309.863281 307.90625 Z M 309.863281 307.90625"/> <use mask="url(#mask1)" xlink:href="#surface8"/> </g> </svg>

<svg width="512" height="512" version="1.1" viewBox="0 0 384 384" xmlns="http://www.w3.org/2000/svg"><path transform="scale(.75)" d="m252.46 63.85c-13.559 0-18.853 0.45796-28.965 2.5078-24.282 4.9145-40.428 12.9-54.965 27.432-12.617 12.613-19.352 24.608-23.582 41.99-0.79168 3.2507-1.3084 5.1016-1.332 7.3476-0.0236 2.2468 1.0544 4.5708 1.9062 5.8711l0.0039 0.00195c1.3774 2.0988 3.8752 4.2815 6.8535 5.2832s6.4248 1.4399 11.994 2.0625h0.00586c4.9784 0.55272 13.658 1.6537 19.109 2.4199 5.7095 0.80249 12.218 1.4551 15.725 1.4551 2.2729 0 4.0712-0.00334 6.1348-0.74414 2.0636-0.7413 3.6918-2.3188 4.75-3.6621l0.00195-0.00195 0.00391-0.00586c1.9912-2.537 3.2318-5.5334 4.1602-8.6602v-0.0039c1.8129-6.0977 3.2-8.4982 7.6914-13.307 7.0303-7.5103 15.421-11.044 26.604-11.016 7.8811 0.01928 12.238 1.3329 18.252 5.4238 3.6962 2.5205 6.0261 5.4842 7.7422 10.348 1.7169 4.8656 2.6152 11.703 2.6152 21.088 0 6.5443-0.51415 9.289-0.39844 9.4297-0.54486 0.04533-1.0375 0.10368-2.3848 0.10742-3.8429 0.01066-12.109 0.87027-21.406 1.9414-9.2968 1.0711-19.037 2.3479-24.395 3.3125-41.879 7.5367-70.012 24.268-83.266 51.037-7.2419 14.618-8.9962 22.972-8.9805 42.67v0.00196c0.0156 15.351 0.38303 18.565 2.7832 26.424l0.0039 0.0039c3.2181 10.516 6.3164 16.767 12.283 24.705v0.00195c9.2275 12.268 24.746 21.472 41.416 24.99 17.26 3.6392 43.894 1.7186 59.607-4.4629v0.00195c12.441-4.893 25.761-14.137 36.143-24.896l0.00391-0.00196 0.00195-0.00586c0.47099-0.49 0.85764-0.79922 1.3144-1.2285 1.1292 1.3423 2.4186 2.9247 3.8184 4.8301 3.6808 5.0173 9.7273 12.013 14.07 16.271 3.5275 3.4596 5.3952 5.4009 7.8223 6.873s5.2208 1.7226 7.4961 1.7226c2.2589 0 4.7649-0.26029 7.1035-1.4082 2.3387-1.1479 4.3041-2.7444 7.4922-5.3281v0.00195c7.8324-6.344 16.027-13.445 22.432-19.322 3.2022-2.9388 5.95-5.5665 8.0215-7.6875 1.0358-1.0605 1.8984-1.9858 2.6094-2.8301 0.71045-0.84365 1.2582-1.1258 1.9434-3.0762 0.96699-2.7502 0.65078-6.3415-0.78711-9.4316-1.4379-3.0901-3.7273-6.3456-7.3359-11.139-2.6078-3.4664-6.4324-9.9661-7.8262-13.201v-0.00391l-2.6797-6.1914-0.55664-61.158c-0.18501-20.037-0.42931-36.301-0.71875-48.221-0.28942-11.919-0.5334-19.028-1.0332-22.516-2.4857-17.353-8.0569-29.715-18.49-40.449-18.035-18.559-45.516-27.598-80.816-27.598zm34.148 141.81 0.3496 21.082c0.34243 21.217-1.3413 30.703-7.9199 44.27-7.361 15.178-17.486 24.486-31.314 28.088-11.623 3.0248-22.38 0.49371-31.029-7.4141-7.8243-7.1484-11.611-16.087-12.316-28.266-0.66814-11.57 1.0815-21.615 5.7441-30.008 4.6626-8.3929 12.155-14.892 22.008-19.686 11.183-5.4403 21.473-7.4907 38.088-7.7832l16.391-0.2832z" color="#000000" color-rendering="auto" dominant-baseline="auto" image-rendering="auto" opacity=".2" shape-rendering="auto" solid-color="#000000" style="font-feature-settings:normal;font-variant-alternates:normal;font-variant-caps:normal;font-variant-ligatures:normal;font-variant-numeric:normal;font-variant-position:normal;isolation:auto;mix-blend-mode:normal;shape-padding:0;text-decoration-color:#000000;text-decoration-line:none;text-decoration-style:solid;text-indent:0;text-orientation:mixed;text-transform:none;white-space:normal"/><path d="m145.39 262.06c-11.641-2.457-22.617-9.0547-28.84-17.328-4.3047-5.7266-6.2774-9.7031-8.625-17.375-1.7656-5.7812-1.9141-7.2461-1.9258-18.727-0.0117-14.594 1.0352-19.613 6.3476-30.336 9.2852-18.754 28.996-30.715 59.754-36.25 7.5938-1.3672 29.332-3.8711 33.695-3.8828 5.7227-0.0156 5.8281-0.20705 5.8281-10.902 0-14.535-2.6641-22.078-9.4102-26.676-4.9844-3.3906-9.3711-4.7031-15.789-4.7187-9.2422-0.0234-16.77 3.1133-22.703 9.4531-3.5976 3.8516-5.1602 6.5586-6.6211 11.473-0.55078 1.8555-1.6641 4.2148-2.4766 5.25-1.2617 1.6016-2.0234 1.875-5.2188 1.875-2.0547 0-7.1289-0.47265-11.27-1.0547-4.1406-0.58203-10.641-1.4062-14.441-1.8281-8.2461-0.92187-9.8594-1.4648-11.418-3.8398-1.1055-1.6875-1.1016-2.1445 0.0742-6.9727 3.0586-12.57 7.5742-20.609 16.695-29.727 10.43-10.426 21.539-15.953 39.316-19.551 7.457-1.5117 10.883-1.8047 20.98-1.8047 25.84 0 45.297 6.5703 57.922 19.562 7.3203 7.5312 11.051 15.734 12.844 28.254 0.54689 3.8164 1 22.523 1.2774 52.555l0.42578 46.629 2.3086 5.3359c1.2656 2.9375 4.1094 7.7383 6.3164 10.672 5.3203 7.0664 6.4258 9.4414 5.5508 11.93-0.64844 1.8476-13.469 13.613-25.078 23.016-4.7188 3.8242-5.5156 4.2148-8.5859 4.2148-3.2539 0-3.5938-0.20703-8.8633-5.375-3.0156-2.957-7.5859-8.2422-10.156-11.746-2.5742-3.5039-5.0664-6.3711-5.539-6.3711-0.47656 0-2.293 1.4805-4.0352 3.293-7.4062 7.6758-17.121 14.379-25.781 17.785-10.555 4.1523-30.758 5.6562-42.559 3.168zm39.453-33.863c9.3594-2.4375 15.836-8.3047 21.059-19.074 4.7695-9.8359 5.8164-15.773 5.5625-31.504l-0.19922-12.059-8.5391 0.14844c-12.203 0.21484-19.051 1.5977-26.992 5.4609-13.754 6.6914-19.656 17.316-18.711 33.68 0.4961 8.5625 2.7695 13.848 8.0234 18.648 5.75 5.2578 11.977 6.7344 19.797 4.6992z" opacity=".3"/><path d="m168.2 339.9c-29.641-3.5586-57.738-16.629-90.051-41.879-10.129-7.9141-21.277-17.543-22.219-19.188-1.4102-2.457-1.0781-5.3281 0.83203-7.2383 2.9648-2.9688 5.2734-2.3906 17.473 4.3711 37.965 21.043 62.137 30.766 88.625 35.641 10.082 1.8555 41.16 1.8711 53.035 0.0273 24.598-3.8203 42.574-8.7578 67.129-18.43 14.086-5.5508 15.785-5.7344 19.309-2.0547 2.3008 2.4023 2.6523 6.1758 0.83203 8.9531-1.5469 2.3594-10.395 8.5156-20.387 14.188-35.324 20.047-79.215 29.855-114.58 25.609zm141.66-24.492c-0.78124-0.78125-1.4219-2.207-1.4219-3.1641s1.7305-6.9648 3.8476-13.348c4.4727-13.496 5.3594-18.316 3.6719-20.004-1.8164-1.8164-7.2539-2.2266-16.418-1.2383-15.918 1.7148-18.062 1.75-19.609 0.35157-2.1406-1.9375-1.8633-6.0234 0.56641-8.3008 2.5977-2.4336 8.9414-5.9258 13.809-7.6016 9.7539-3.3555 29.836-3.8438 36.516-0.88672 4.8906 2.1641 5.7539 4.082 5.6289 12.523-0.20312 13.797-6.1484 28.844-15.062 38.117-4.2461 4.418-5.0781 4.9766-7.4414 4.9766-1.7109 0-3.168-0.50781-4.0859-1.4258z" opacity=".3"/><path d="m145.39 254.56c-11.641-2.457-22.617-9.0547-28.84-17.328-4.3047-5.7266-6.2773-9.7031-8.625-17.375-1.7656-5.7812-1.9141-7.2461-1.9258-18.727-0.011718-14.594 1.0352-19.613 6.3477-30.336 9.2852-18.754 28.996-30.715 59.754-36.25 7.5938-1.3672 29.332-3.8711 33.695-3.8828 5.7227-0.015625 5.8281-0.20703 5.8281-10.902 0-14.535-2.6641-22.078-9.4102-26.676-4.9844-3.3906-9.3711-4.7031-15.789-4.7188-9.2422-0.023437-16.77 3.1133-22.703 9.4531-3.5977 3.8516-5.1602 6.5586-6.6211 11.473-0.55078 1.8555-1.6641 4.2148-2.4766 5.25-1.2617 1.6016-2.0234 1.875-5.2188 1.875-2.0547 0-7.1289-0.47266-11.27-1.0547s-10.641-1.4062-14.441-1.8281c-8.2461-0.92188-9.8594-1.4648-11.418-3.8398-1.1055-1.6875-1.1016-2.1445 0.074219-6.9727 3.0586-12.57 7.5742-20.609 16.695-29.727 10.43-10.426 21.539-15.953 39.316-19.551 7.457-1.5117 10.883-1.8047 20.98-1.8047 25.84 0 45.297 6.5703 57.922 19.562 7.3203 7.5312 11.051 15.734 12.844 28.254 0.54688 3.8164 1 22.523 1.2773 52.555l0.42578 46.629 2.3086 5.3359c1.2656 2.9375 4.1094 7.7383 6.3164 10.672 5.3203 7.0664 6.4258 9.4414 5.5508 11.93-0.64844 1.8477-13.469 13.613-25.078 23.016-4.7188 3.8242-5.5156 4.2148-8.5859 4.2148-3.2539 0-3.5938-0.20703-8.8633-5.375-3.0156-2.957-7.5859-8.2422-10.156-11.746-2.5742-3.5039-5.0664-6.3711-5.5391-6.3711-0.47656 0-2.293 1.4805-4.0352 3.293-7.4062 7.6758-17.121 14.379-25.781 17.785-10.555 4.1523-30.758 5.6562-42.559 3.168zm39.453-33.863c9.3594-2.4375 15.836-8.3047 21.059-19.074 4.7695-9.8359 5.8164-15.773 5.5625-31.504l-0.19922-12.059-8.5391 0.14844c-12.203 0.21484-19.051 1.5977-26.992 5.4609-13.754 6.6914-19.656 17.316-18.711 33.68 0.49609 8.5625 2.7695 13.848 8.0234 18.648 5.75 5.2578 11.977 6.7344 19.797 4.6992z" fill="#fff"/><path d="m168.2 332.4c-29.641-3.5586-57.738-16.629-90.051-41.879-10.129-7.9141-21.277-17.543-22.219-19.188-1.4102-2.457-1.0781-5.3281 0.83203-7.2383 2.9648-2.9688 5.2734-2.3906 17.473 4.3711 37.965 21.043 62.137 30.766 88.625 35.641 10.082 1.8555 41.16 1.8711 53.035 0.027343 24.598-3.8203 42.574-8.7578 67.129-18.43 14.086-5.5508 15.785-5.7344 19.309-2.0547 2.3008 2.4023 2.6523 6.1758 0.83203 8.9531-1.5469 2.3594-10.395 8.5156-20.387 14.188-35.324 20.047-79.215 29.855-114.58 25.609zm141.66-24.492c-0.78125-0.78125-1.4219-2.207-1.4219-3.1641 0-0.95703 1.7305-6.9648 3.8477-13.348 4.4727-13.496 5.3594-18.316 3.6719-20.004-1.8164-1.8164-7.2539-2.2266-16.418-1.2383-15.918 1.7148-18.062 1.75-19.609 0.35156-2.1406-1.9375-1.8633-6.0234 0.56641-8.3008 2.5977-2.4336 8.9414-5.9258 13.809-7.6016 9.7539-3.3555 29.836-3.8438 36.516-0.88672 4.8906 2.1641 5.7539 4.082 5.6289 12.523-0.20312 13.797-6.1484 28.844-15.062 38.117-4.2461 4.418-5.0781 4.9766-7.4414 4.9766-1.7109 0-3.168-0.50781-4.0859-1.4258z" fill="#e32f2f"/><path transform="scale(.75)" d="m252.46 68.85c-4.661 0-8.219 0.05241-11.34 0.19727 30.165 1.3708 53.179 10.046 68.57 25.885 9.7604 10.042 14.734 20.979 17.125 37.672 0.72919 5.0885 1.3333 30.033 1.7031 70.074l0.56641 62.172 3.0781 7.1133c1.6875 3.9167 5.4792 10.319 8.4219 14.23 7.0938 9.4219 8.569 12.589 7.4023 15.906-0.86458 2.4635-17.958 18.151-33.438 30.688-0.34 0.27555-0.6111 0.48688-0.92187 0.73633 4.8545 4.6707 5.676 4.8828 9.4727 4.8828 4.0938 0 5.1576-0.52018 11.449-5.6191 15.479-12.536 32.573-28.224 33.438-30.688 1.1667-3.3177-0.30858-6.4844-7.4023-15.906-2.9427-3.9114-6.7344-10.314-8.4219-14.23l-3.0781-7.1133-0.56641-62.172c-0.36978-40.042-0.97393-64.986-1.7031-70.074-2.3906-16.693-7.3646-27.63-17.125-37.672-16.833-17.323-42.777-26.082-77.23-26.082z" opacity=".3" stroke-width="1.3333"/><path d="m219.18 233.74c0.0354-0.0223 0.0234 0.0745-0.22852 0.17188 0.07-0.0505 0.20483-0.15692 0.22852-0.17188z" color="#000000" color-rendering="auto" dominant-baseline="auto" image-rendering="auto" shape-rendering="auto" solid-color="#000000" style="font-feature-settings:normal;font-variant-alternates:normal;font-variant-caps:normal;font-variant-ligatures:normal;font-variant-numeric:normal;font-variant-position:normal;isolation:auto;mix-blend-mode:normal;shape-padding:0;text-decoration-color:#000000;text-decoration-line:none;text-decoration-style:solid;text-indent:0;text-orientation:mixed;text-transform:none;white-space:normal"/></svg>
